svgs/duotone/brush.svg

<svg xmlns="http://www.w3.org/2000/svg" viewBox="0 0 384 512"><!--! Font Awesome Pro 6.6.0 by @fontawesome - https://fontawesome.com License - https://fontawesome.com/license (Commercial License) Copyright 2024 Fonticons, Inc. --><path class="fa-secondary" style="fill:var(--fa-secondary-color,inherit);opacity:var(--fa-secondary-opacity,.4);" d="M0 48L0 256l0 22.4L0 288l9.6 0 364.8 0 9.6 0 0-9.6 0-22.4 0-208c0-26.5-21.5-48-48-48L230.5 0c-3.9 0-7.5 2.4-8.9 6L200.9 57.7c-3.2 8-14.6 8-17.8 0L162.4 6c-1.5-3.6-5-6-8.9-6l-19 0c-3.9 0-7.5 2.4-8.9 6L104.9 57.7c-3.2 8-14.6 8-17.8 0L66.4 6c-1.5-3.6-5-6-8.9-6L48 0C21.5 0 0 21.5 0 48z"/><path class="fa-primary" style="fill:var(--fa-primary-color,inherit);opacity:var(--fa-primary-opacity,1);" d="M0 288l384 0 0 32c0 35.3-28.7 64-64 64l-64 0 0 64c0 35.3-28.7 64-64 64s-64-28.7-64-64l0-64-64 0c-35.3 0-64-28.7-64-64l0-32zM192 464a16 16 0 1 0 0-32 16 16 0 1 0 0 32z"/></svg>

<svg xmlns="http://www.w3.org/2000/svg" viewBox="0 0 384 512"><!--! Font Awesome Pro 6.4.2 by @fontawesome - https://fontawesome.com License - https://fontawesome.com/license (Commercial License) Copyright 2023 Fonticons, Inc. --><path class="fa-primary" style="fill:var(--fa-primary-color,inherit);opacity:var(--fa-primary-opacity,1);" d="M0 288H384v32c0 35.3-28.7 64-64 64H256v64c0 35.3-28.7 64-64 64s-64-28.7-64-64V384H64c-35.3 0-64-28.7-64-64V288zM192 464a16 16 0 1 0 0-32 16 16 0 1 0 0 32z"/><path class="fa-secondary" style="fill:var(--fa-secondary-color,inherit);opacity:var(--fa-secondary-opacity,.4);" d="M162.4 6c-1.5-3.6-5-6-8.9-6h-19c-3.9 0-7.5 2.4-8.9 6L104.9 57.7c-3.2 8-14.6 8-17.8 0L66.4 6c-1.5-3.6-5-6-8.9-6H48C21.5 0 0 21.5 0 48V256v22.4V288H9.6 374.4 384v-9.6V256 48c0-26.5-21.5-48-48-48H230.5c-3.9 0-7.5 2.4-8.9 6L200.9 57.7c-3.2 8-14.6 8-17.8 0L162.4 6z"/></svg>
